stuff/config/qss/Default/imgs/black/tree17_branch-closed_nosib.svg

<?xml version="1.0" encoding="UTF-8" standalone="no"?><!DOCTYPE svg PUBLIC "-//W3C//DTD SVG 1.1//EN" "http://www.w3.org/Graphics/SVG/1.1/DTD/svg11.dtd"><svg width="100%" height="100%" viewBox="0 0 14 17" version="1.1" xmlns="http://www.w3.org/2000/svg" xmlns:xlink="http://www.w3.org/1999/xlink" xml:space="preserve" style="fill-rule:evenodd;clip-rule:evenodd;stroke-linejoin:round;stroke-miterlimit:1.41421;"><path d="M7,5l4,0l0,4l3,0l0,1l-3,0l0,4l-9,0l0,-9l4,0l0,-5l1,0l0,5Zm-4,1l0,7l7,0l0,-7c-2.333,0 -4.667,0 -7,0Z"/><path d="M7,9l2,0l0,1l-2,0l0,2l-1,0l0,-2l-2,0l0,-1l2,0l0,-2l1,0c0,0.667 0,1.333 0,2Z" style="fill-rule:nonzero;"/></svg>

<?xml version="1.0" encoding="utf-8"?>
<!-- Generator: Adobe Illustrator 21.0.2, SVG Export Plug-In . SVG Version: 6.00 Build 0)  -->
<svg version="1.1"
	 id="svg2" inkscape:version="0.91 r13725" sodipodi:docname="tree17_branch-closed_nosib.svg" xmlns:cc="http://creativecommons.org/ns#" xmlns:dc="http://purl.org/dc/elements/1.1/" xmlns:inkscape="http://www.inkscape.org/namespaces/inkscape" xmlns:rdf="http://www.w3.org/1999/02/22-rdf-syntax-ns#" xmlns:sodipodi="http://sodipodi.sourceforge.net/DTD/sodipodi-0.dtd" xmlns:svg="http://www.w3.org/2000/svg"
	 xmlns="http://www.w3.org/2000/svg" xmlns:xlink="http://www.w3.org/1999/xlink" x="0px" y="0px" viewBox="0 0 14 17"
	 style="enable-background:new 0 0 14 17;" xml:space="preserve">
<path id="path4" inkscape:connector-curvature="0" d="M7,5h4v4h3v1h-3v4H2V5h4V0h1V5z M3,6v7h7V6C7.7,6,5.3,6,3,6z"/>
<path id="path6" inkscape:connector-curvature="0" d="M7,9h2v1H7v2H6v-2H4V9h2V7h1C7,7.7,7,8.3,7,9z"/>
</svg>
